packages/core/src/svgs/networks/mono/reya.svg

<svg width="24" height="24" viewBox="0 0 24 24" fill="none" xmlns="http://www.w3.org/2000/svg">
<path d="M7.99727 14.5308L6.39435 11.4391V5.11901L4.5 2H12.1229C16.6585 2 19.3088 4.29822 19.3088 8.23803C19.3088 10.9193 18.0519 12.8345 15.7022 13.7921L19.5 22H15.6749L12.2869 14.5308H7.99727ZM6.39435 5.11901V11.4391H12.1229C14.3361 11.4391 15.6476 10.2626 15.6476 8.23803C15.6476 6.24076 14.3361 5.11901 12.1229 5.11901H8.31148C6.823 5.11901 7.88283 5.11901 6.39435 5.11901Z" fill="white"/>
</svg>

<svg xmlns="http://www.w3.org/2000/svg" width="24" height="24" fill="none" viewBox="0 0 24 24">
    <path fill="#fff" d="m7.997 14.53-1.603-3.09V5.118L4.5 2h7.623c4.536 0 7.186 2.298 7.186 6.238 0 2.681-1.257 4.597-3.607 5.554L19.5 22h-3.825l-3.388-7.47zM6.394 5.12v6.32h5.729c2.213 0 3.525-1.176 3.525-3.201 0-1.997-1.312-3.119-3.525-3.119z"/>
</svg>
